X:32
T:Miss Rowan Davies
C:Phil Cunningham
M:3/4
L:1/4
K:G
B/2A/2 |: G2 D| D3/2 E/2 F|(G3|G) g f | e3/2 G/2 G| d3/2 G/2 B|
A3| B2 A|G2 D| D3/2 E/2 F| (G3|G2) A/2B/2| E/2 c3/2 A| F2 G|
1(G3|G2) B/2A/2 :|2(G3|G2) G/2F/2||
E3/2 E/2 E|e3/2 G/2 G| d3|d2 B/2 A/2|
G3/2 A/2 B| e G3/2 A/2| B3| B c d| e3/2 e/2 E/2G/2|F G A/2F/2| G3 |
G3/2 A/2 B/2G/2| E/2c3/2 A| F2 G|1 (G3|G2) G/2F/2 :|2(G3|G2) ||
